flaticon/gastronomy/pizza-1.svg

<svg xmlns="http://www.w3.org/2000/svg" width="32" height="32" viewBox="0 0 24 24">
    <path d="M16.832031 9.226562C16.636719 9.339844 16.566406 9.59375 16.679688 9.789062 16.792969 9.988281 17.046875 10.058594 17.246094 9.945312 17.292969 9.917969 17.355469 9.933594 17.386719 9.984375 17.507812 10.199219 17.710938 10.355469 17.949219 10.421875 18.1875 10.484375 18.441406 10.453125 18.65625 10.328125 18.703125 10.300781 18.769531 10.320312 18.796875 10.367188 18.96875 10.667969 19.28125 10.835938 19.605469 10.835938 19.761719 10.835938 19.921875 10.796875 20.066406 10.714844 20.265625 10.601562 20.335938 10.347656 20.222656 10.148438 20.109375 9.953125 19.855469 9.882812 19.65625 9.996094 19.605469 10.023438 19.542969 10.007812 19.515625 9.957031 19.261719 9.511719 18.691406 9.359375 18.246094 9.613281 18.214844 9.628906 18.183594 9.625 18.167969 9.621094 18.148438 9.617188 18.121094 9.605469 18.105469 9.574219 17.980469 9.355469 17.78125 9.203125 17.539062 9.136719 17.300781 9.070312 17.050781 9.101562 16.832031 9.226562zM9.816406 6.605469C9.855469 6.617188 9.894531 6.621094 9.929688 6.621094 10.109375 6.621094 10.273438 6.503906 10.328125 6.324219 10.34375 6.269531 10.402344 6.234375 10.457031 6.253906 10.949219 6.394531 11.464844 6.113281 11.609375 5.621094 11.625 5.5625 11.683594 5.53125 11.738281 5.546875 11.976562 5.617188 12.230469 5.589844 12.449219 5.472656 12.664062 5.351562 12.824219 5.152344 12.894531 4.914062 12.957031 4.695312 12.832031 4.464844 12.613281 4.402344 12.394531 4.335938 12.164062 4.464844 12.097656 4.683594 12.082031 4.738281 12.027344 4.769531 11.96875 4.753906 11.476562 4.609375 10.960938 4.894531 10.816406 5.386719 10.800781 5.441406 10.742188 5.472656 10.6875 5.457031 10.195312 5.3125 9.675781 5.597656 9.535156 6.089844 9.46875 6.308594 9.597656 6.539062 9.816406 6.605469zM4.796875 13.515625C5.003906 13.65625 5.25 13.710938 5.496094 13.667969 5.550781 13.65625 5.605469 13.695312 5.613281 13.753906 5.695312 14.203125 6.085938 14.523438 6.53125 14.523438 6.582031 14.523438 6.636719 14.519531 6.691406 14.507812 6.917969 14.46875 7.066406 14.253906 7.027344 14.03125 6.988281 13.804688 6.777344 13.65625 6.550781 13.695312 6.492188 13.703125 6.4375 13.667969 6.429688 13.609375 6.339844 13.105469 5.859375 12.761719 5.351562 12.855469 5.316406 12.859375 5.289062 12.847656 5.273438 12.835938 5.257812 12.824219 5.238281 12.804688 5.230469 12.769531 5.1875 12.523438 5.054688 12.3125 4.847656 12.167969 4.644531 12.027344 4.398438 11.96875 4.152344 12.015625 3.929688 12.054688 3.777344 12.269531 3.816406 12.492188 3.855469 12.71875 4.074219 12.871094 4.296875 12.828125 4.332031 12.824219 4.359375 12.835938 4.375 12.847656 4.390625 12.855469 4.410156 12.878906 4.417969 12.914062 4.460938 13.160156 4.59375 13.371094 4.796875 13.515625zM7.664062 12.398438C7.703125 12.410156 7.742188 12.414062 7.78125 12.414062 7.957031 12.414062 8.125 12.296875 8.175781 12.117188 8.191406 12.0625 8.25 12.027344 8.304688 12.046875 8.796875 12.191406 9.316406 11.90625 9.460938 11.414062 9.476562 11.355469 9.53125 11.324219 9.585938 11.339844 10.082031 11.484375 10.597656 11.199219 10.742188 10.707031 10.804688 10.488281 10.679688 10.257812 10.460938 10.195312 10.242188 10.132812 10.011719 10.257812 9.949219 10.476562 9.9375 10.511719 9.914062 10.53125 9.898438 10.539062 9.882812 10.546875 9.851562 10.558594 9.820312 10.546875 9.324219 10.402344 8.808594 10.6875 8.664062 11.179688 8.648438 11.234375 8.589844 11.265625 8.535156 11.25 8.042969 11.105469 7.527344 11.390625 7.382812 11.882812 7.316406 12.101562 7.445312 12.332031 7.664062 12.398438zM18.65625 12.835938C17.890625 12.769531 17.222656 13.0625 16.957031 13.582031 16.785156 13.914062 16.828125 14.292969 17.066406 14.566406 17.167969 14.683594 17.394531 14.972656 17.304688 15.152344 17.21875 15.324219 16.867188 15.464844 16.582031 15.445312 16.308594 15.425781 16.109375 15.363281 16.035156 15.269531 15.976562 15.191406 15.96875 15.042969 16.015625 14.816406 16.023438 14.765625 16.070312 14.636719 16.113281 14.523438 16.28125 14.0625 16.46875 13.535156 16.253906 13.15625 16.15625 12.988281 15.996094 12.878906 15.796875 12.839844L15.730469 12.832031C15.503906 12.800781 15.3125 12.960938 15.28125 13.1875 15.257812 13.367188 15.363281 13.539062 15.519531 13.617188 15.5 13.785156 15.386719 14.097656 15.332031 14.242188 15.277344 14.402344 15.226562 14.542969 15.203125 14.65625 15.144531 14.960938 15.097656 15.40625 15.382812 15.773438 15.605469 16.066406 15.992188 16.234375 16.523438 16.273438 16.5625 16.273438 16.597656 16.273438 16.636719 16.273438 17.167969 16.273438 17.796875 16.027344 18.046875 15.519531 18.175781 15.261719 18.300781 14.722656 17.691406 14.023438 17.679688 14.011719 17.671875 14 17.695312 13.957031 17.769531 13.8125 18.066406 13.617188 18.585938 13.660156 18.8125 13.683594 19.011719 13.511719 19.035156 13.285156 19.050781 13.058594 18.882812 12.855469 18.65625 12.835938zM9.554688 14.488281C8.753906 14.414062 8.335938 14.691406 8.121094 14.933594 7.871094 15.222656 7.777344 15.625 7.871094 16.039062 8.03125 16.734375 7.988281 17.25 7.753906 17.523438 7.523438 17.796875 7.113281 17.800781 6.949219 17.789062 6.773438 17.777344 6.652344 17.714844 6.558594 17.59375 6.339844 17.3125 6.324219 16.765625 6.382812 16.46875 6.429688 16.242188 6.28125 16.023438 6.058594 15.980469 5.832031 15.9375 5.617188 16.082031 5.570312 16.308594 5.492188 16.710938 5.472656 17.542969 5.902344 18.097656 6.140625 18.410156 6.484375 18.585938 6.894531 18.617188 6.945312 18.617188 7 18.621094 7.050781 18.621094 7.597656 18.621094 8.078125 18.421875 8.382812 18.0625 8.800781 17.574219 8.902344 16.832031 8.679688 15.855469 8.660156 15.765625 8.640625 15.597656 8.746094 15.476562 8.867188 15.339844 9.128906 15.28125 9.480469 15.3125 9.710938 15.332031 9.910156 15.164062 9.929688 14.9375 9.949219 14.707031 9.78125 14.507812 9.554688 14.488281zM9.554688 14.488281"/>
    <path d="M 12 0 C 5.382812 0 0 5.382812 0 12 C 0 15.101562 1.175781 18.03125 3.308594 20.273438 L 3.308594 21.515625 C 3.308594 22.203125 3.867188 22.757812 4.550781 22.757812 C 4.652344 22.757812 4.75 22.742188 4.847656 22.71875 C 4.875 22.710938 4.902344 22.703125 4.929688 22.695312 C 4.996094 22.671875 5.0625 22.644531 5.125 22.613281 C 5.148438 22.601562 5.171875 22.585938 5.195312 22.574219 C 5.273438 22.527344 5.347656 22.472656 5.410156 22.410156 C 5.414062 22.40625 5.417969 22.40625 5.417969 22.402344 C 5.488281 22.332031 5.550781 22.253906 5.601562 22.171875 C 5.605469 22.167969 5.609375 22.164062 5.613281 22.15625 C 7.527344 23.363281 9.722656 24 12 24 C 18.617188 24 24 18.617188 24 12 C 24 5.382812 18.617188 0 12 0 Z M 4.136719 21.515625 L 4.136719 17.363281 L 4.070312 17.257812 C 3.03125 15.699219 2.484375 13.878906 2.484375 12 C 2.484375 9.261719 3.628906 6.71875 5.652344 4.910156 C 5.832031 5.589844 6.21875 6.160156 6.894531 6.207031 C 7.378906 6.242188 7.910156 6 8.265625 5.582031 C 8.621094 5.171875 8.976562 4.402344 8.691406 3.078125 C 9.75 2.683594 10.863281 2.484375 12 2.484375 C 17.246094 2.484375 21.515625 6.75 21.515625 12 C 21.515625 16.15625 18.859375 19.800781 14.902344 21.066406 L 14.488281 21.195312 L 14.640625 21.601562 C 14.664062 21.671875 14.710938 21.777344 14.796875 21.878906 C 14.898438 21.992188 15.125 22.28125 15.035156 22.460938 C 14.953125 22.632812 14.597656 22.773438 14.3125 22.757812 C 14.039062 22.738281 13.839844 22.671875 13.769531 22.582031 C 13.707031 22.503906 13.699219 22.355469 13.746094 22.125 C 13.761719 22.03125 13.773438 21.941406 13.777344 21.847656 L 13.796875 21.359375 L 13.308594 21.425781 C 12.863281 21.488281 12.421875 21.515625 12 21.515625 C 9.65625 21.515625 7.402344 20.65625 5.65625 19.09375 L 4.964844 18.472656 L 4.964844 21.515625 C 4.964844 21.746094 4.78125 21.929688 4.550781 21.929688 C 4.324219 21.929688 4.136719 21.746094 4.136719 21.515625 Z M 5.792969 21.28125 L 5.792969 20.273438 C 7.578125 21.613281 9.75 22.34375 12 22.34375 C 12.292969 22.34375 12.589844 22.332031 12.890625 22.304688 C 12.878906 22.554688 12.921875 22.835938 13.113281 23.085938 C 13.121094 23.097656 13.132812 23.105469 13.140625 23.113281 C 12.765625 23.152344 12.386719 23.171875 12 23.171875 C 9.773438 23.171875 7.632812 22.515625 5.792969 21.28125 Z M 15.875 22.476562 C 15.898438 22.265625 15.859375 21.992188 15.671875 21.671875 C 19.6875 20.152344 22.34375 16.335938 22.34375 12 C 22.34375 6.296875 17.703125 1.65625 12 1.65625 C 10.65625 1.65625 9.347656 1.910156 8.105469 2.417969 L 7.878906 2.507812 L 7.851562 2.753906 C 7.832031 2.914062 7.839844 3.066406 7.871094 3.210938 C 8.101562 4.230469 7.871094 4.773438 7.636719 5.046875 C 7.410156 5.3125 7.125 5.398438 6.949219 5.382812 C 6.574219 5.355469 6.386719 4.585938 6.359375 4.105469 L 6.316406 3.324219 L 5.695312 3.800781 C 3.128906 5.777344 1.65625 8.765625 1.65625 12 C 1.65625 14 2.226562 15.9375 3.308594 17.613281 L 3.308594 19.019531 C 1.703125 17.035156 0.828125 14.582031 0.828125 12 C 0.828125 5.839844 5.839844 0.828125 12 0.828125 C 18.160156 0.828125 23.171875 5.839844 23.171875 12 C 23.171875 16.796875 20.132812 20.898438 15.875 22.476562 Z M 15.875 22.476562"/>
    <path d="M13.546875 16.890625C13.121094 16.535156 12.484375 16.589844 12.125 17.011719L11.824219 17.367188C11.648438 17.574219 11.566406 17.835938 11.589844 18.105469 11.613281 18.371094 11.738281 18.617188 11.945312 18.789062L12.933594 19.625C13.117188 19.78125 13.34375 19.863281 13.582031 19.863281 13.609375 19.863281 13.640625 19.859375 13.667969 19.859375 13.9375 19.835938 14.179688 19.710938 14.351562 19.503906L14.652344 19.148438C15.011719 18.722656 14.957031 18.085938 14.535156 17.726562zM14.023438 18.613281L13.722656 18.96875C13.679688 19.019531 13.625 19.03125 13.597656 19.035156 13.570312 19.035156 13.515625 19.035156 13.464844 18.992188L12.476562 18.15625C12.429688 18.113281 12.417969 18.0625 12.414062 18.035156 12.414062 18.003906 12.414062 17.953125 12.457031 17.902344L12.757812 17.546875C12.820312 17.46875 12.9375 17.460938 13.011719 17.523438L14 18.359375C14.078125 18.421875 14.085938 18.539062 14.023438 18.613281zM14.542969 7.078125C14.589844 7.34375 14.734375 7.574219 14.957031 7.730469 15.128906 7.851562 15.328125 7.917969 15.535156 7.917969 15.59375 7.917969 15.648438 7.910156 15.707031 7.902344L16.984375 7.683594C17.25 7.636719 17.480469 7.492188 17.636719 7.273438 17.792969 7.050781 17.851562 6.785156 17.808594 6.519531L17.726562 6.058594C17.683594 5.792969 17.535156 5.5625 17.316406 5.40625 17.097656 5.253906 16.828125 5.191406 16.566406 5.238281L15.289062 5.453125C15.023438 5.5 14.792969 5.648438 14.636719 5.867188 14.480469 6.085938 14.421875 6.355469 14.464844 6.617188zM15.3125 6.34375C15.328125 6.320312 15.363281 6.28125 15.429688 6.269531L16.703125 6.050781C16.714844 6.050781 16.722656 6.050781 16.734375 6.050781 16.78125 6.050781 16.820312 6.070312 16.839844 6.082031 16.859375 6.097656 16.902344 6.136719 16.910156 6.199219L16.992188 6.660156C17 6.722656 16.976562 6.769531 16.960938 6.792969 16.945312 6.816406 16.90625 6.855469 16.84375 6.867188L15.566406 7.085938C15.503906 7.09375 15.457031 7.070312 15.433594 7.054688 15.410156 7.039062 15.371094 7.003906 15.359375 6.9375L15.28125 6.480469C15.269531 6.414062 15.296875 6.367188 15.3125 6.34375zM11.929688 10.183594C11.730469 10.359375 11.609375 10.605469 11.589844 10.875L11.5625 11.339844C11.527344 11.894531 11.949219 12.375 12.503906 12.410156L13.796875 12.492188C13.816406 12.492188 13.839844 12.496094 13.859375 12.496094 14.105469 12.496094 14.339844 12.40625 14.527344 12.242188 14.726562 12.066406 14.847656 11.820312 14.867188 11.550781L14.894531 11.085938C14.929688 10.53125 14.507812 10.050781 13.953125 10.015625L12.660156 9.933594C12.394531 9.921875 12.132812 10.003906 11.929688 10.183594zM14.070312 11.03125L14.039062 11.5C14.035156 11.5625 14 11.605469 13.980469 11.621094 13.957031 11.640625 13.914062 11.671875 13.847656 11.667969L12.554688 11.585938C12.457031 11.578125 12.382812 11.492188 12.386719 11.394531L12.417969 10.925781C12.421875 10.863281 12.457031 10.820312 12.476562 10.804688 12.5 10.785156 12.542969 10.753906 12.609375 10.757812L13.898438 10.839844C14 10.847656 14.074219 10.933594 14.070312 11.03125zM4.921875 10.820312L6.183594 11.109375C6.261719 11.125 6.335938 11.132812 6.40625 11.132812 6.867188 11.132812 7.285156 10.816406 7.390625 10.347656L7.609375 9.378906C7.671875 9.117188 7.625 8.847656 7.480469 8.621094 7.335938 8.390625 7.113281 8.234375 6.851562 8.171875L5.589844 7.886719C5.328125 7.828125 5.054688 7.875 4.828125 8.019531 4.601562 8.160156 4.441406 8.386719 4.382812 8.648438L4.164062 9.613281C4.105469 9.878906 4.148438 10.148438 4.292969 10.375 4.4375 10.605469 4.660156 10.761719 4.921875 10.820312zM5.191406 8.832031C5.203125 8.765625 5.246094 8.734375 5.269531 8.71875 5.292969 8.703125 5.34375 8.679688 5.40625 8.695312L6.667969 8.980469C6.730469 8.996094 6.765625 9.035156 6.78125 9.058594 6.796875 9.085938 6.816406 9.132812 6.804688 9.195312L6.585938 10.164062C6.5625 10.261719 6.464844 10.324219 6.367188 10.300781L5.105469 10.015625C5.042969 10 5.007812 9.957031 4.992188 9.933594 4.980469 9.910156 4.957031 9.863281 4.96875 9.796875zM5.191406 8.832031"/>
</svg>

<svg xmlns="http://www.w3.org/2000/svg" width="32" height="32" viewBox="0 0 24 24">
    <path d="M16.832 9.227a.414.414 0 0 0 .414.718.104.104 0 0 1 .14.04.93.93 0 0 0 .563.437.933.933 0 0 0 .707-.094c.047-.027.114-.008.14.04a.928.928 0 0 0 1.27.347c.2-.113.27-.367.157-.567a.418.418 0 0 0-.567-.152.102.102 0 0 1-.14-.039.931.931 0 0 0-1.27-.344.115.115 0 0 1-.078.008.087.087 0 0 1-.063-.047.924.924 0 0 0-.566-.437.916.916 0 0 0-.707.09zm0 0M9.816 6.605a.417.417 0 0 0 .512-.281c.016-.054.074-.09.129-.07a.933.933 0 0 0 1.152-.633.104.104 0 0 1 .13-.074c.238.07.491.043.71-.074a.95.95 0 0 0 .446-.559.414.414 0 0 0-.282-.512.416.416 0 0 0-.515.282.103.103 0 0 1-.13.07.93.93 0 0 0-1.152.633.104.104 0 0 1-.129.07.928.928 0 0 0-1.152.633.416.416 0 0 0 .281.515zm0 0M4.797 13.516c.207.14.453.195.7.152a.1.1 0 0 1 .116.086.936.936 0 0 0 1.078.754.412.412 0 1 0-.14-.813c-.059.008-.114-.027-.121-.086a.928.928 0 0 0-1.078-.754.11.11 0 0 1-.121-.086.915.915 0 0 0-.383-.601.914.914 0 0 0-.696-.152.412.412 0 1 0 .145.813.11.11 0 0 1 .078.019c.016.007.035.03.043.066a.924.924 0 0 0 .379.602zm0 0M7.664 12.398a.412.412 0 0 0 .512-.281c.015-.054.074-.09.129-.07a.934.934 0 0 0 1.156-.633.1.1 0 0 1 .125-.074.933.933 0 0 0 1.156-.633.414.414 0 0 0-.793-.23.107.107 0 0 1-.05.062.1.1 0 0 1-.079.008.933.933 0 0 0-1.156.633.104.104 0 0 1-.129.07.93.93 0 0 0-1.152.633.416.416 0 0 0 .281.515zm0 0M18.656 12.836c-.765-.066-1.433.226-1.699.746a.867.867 0 0 0 .11.984c.101.118.328.407.238.586-.086.172-.438.313-.723.293-.273-.02-.473-.082-.547-.175-.058-.079-.066-.227-.02-.454.008-.05.055-.18.098-.293.168-.46.356-.988.14-1.367a.66.66 0 0 0-.456-.316l-.067-.008c-.226-.031-.418.129-.449.355a.429.429 0 0 0 .239.43c-.02.168-.133.48-.188.625-.055.16-.105.301-.129.414-.058.305-.105.75.18 1.117.222.293.61.461 1.14.5h.114c.531 0 1.16-.246 1.41-.753.129-.258.254-.797-.356-1.497-.011-.011-.02-.023.004-.066.075-.145.371-.34.89-.297a.415.415 0 0 0 .45-.375.421.421 0 0 0-.379-.45zm0 0M9.555 14.488c-.801-.074-1.22.203-1.434.446-.25.289-.344.691-.25 1.105.16.695.117 1.211-.117 1.484-.23.274-.64.278-.805.266a.497.497 0 0 1-.39-.195c-.22-.282-.235-.828-.176-1.125a.412.412 0 0 0-.324-.489.417.417 0 0 0-.489.329c-.078.402-.097 1.234.332 1.789.239.312.582.488.993.52l.156.003c.547 0 1.027-.2 1.332-.558.418-.489.52-1.231.297-2.208-.02-.09-.04-.257.066-.378.121-.137.383-.196.734-.165a.413.413 0 1 0 .075-.824zm0 0"/>
    <path d="M12 0C5.383 0 0 5.383 0 12a11.94 11.94 0 0 0 3.309 8.273v1.243c0 .687.558 1.242 1.242 1.242a1.263 1.263 0 0 0 .574-.145c.023-.011.047-.027.07-.039.078-.047.153-.101.215-.164.004-.004.008-.004.008-.008a1.286 1.286 0 0 0 .195-.246A11.923 11.923 0 0 0 12 24c6.617 0 12-5.383 12-12S18.617 0 12 0zM4.137 21.516v-4.153l-.067-.105A9.45 9.45 0 0 1 2.484 12a9.445 9.445 0 0 1 3.168-7.09c.18.68.567 1.25 1.243 1.297.484.035 1.015-.207 1.37-.625.356-.41.712-1.18.426-2.504A9.442 9.442 0 0 1 12 2.484c5.246 0 9.516 4.266 9.516 9.516 0 4.156-2.657 7.8-6.614 9.066l-.414.13.153.406c.023.07.07.175.156.277.101.113.328.402.238.582-.082.172-.437.312-.723.297-.273-.02-.472-.086-.542-.176-.063-.078-.07-.227-.024-.457.016-.094.027-.184.031-.277l.02-.489-.488.067a9.501 9.501 0 0 1-7.652-2.332l-.692-.621v3.043a.414.414 0 0 1-.828 0zm1.656-.235v-1.008a10.33 10.33 0 0 0 7.098 2.032c-.012.25.03.53.222.78.008.013.02.02.028.028a11.092 11.092 0 0 1-7.348-1.832zm10.082 1.196c.023-.211-.016-.485-.203-.805A10.302 10.302 0 0 0 22.344 12c0-5.703-4.64-10.344-10.344-10.344-1.344 0-2.652.254-3.895.762l-.226.09-.027.246c-.02.16-.012.312.02.457.23 1.02 0 1.562-.235 1.836-.227.266-.512.351-.688.336-.375-.028-.562-.797-.59-1.278l-.043-.78-.62.476A10.28 10.28 0 0 0 1.655 12c0 2 .57 3.938 1.653 5.613v1.407A11.107 11.107 0 0 1 .829 12C.828 5.84 5.838.828 12 .828 18.16.828 23.172 5.84 23.172 12c0 4.797-3.04 8.898-7.297 10.477zm0 0"/>
    <path d="M13.547 16.89a1.016 1.016 0 0 0-1.422.122l-.3.355a.997.997 0 0 0-.235.738.999.999 0 0 0 .355.684l.989.836c.183.156.41.238.648.238.027 0 .059-.004.086-.004a.99.99 0 0 0 .684-.355l.3-.356a1.012 1.012 0 0 0-.117-1.421zm.476 1.723l-.3.356a.196.196 0 0 1-.125.066c-.028 0-.082 0-.133-.043l-.988-.836a.199.199 0 0 1-.063-.12c0-.032 0-.083.043-.134l.3-.355a.18.18 0 0 1 .255-.024l.988.836a.18.18 0 0 1 .023.254zm0 0M14.543 7.078a1 1 0 0 0 .414.652 1 1 0 0 0 .578.188c.059 0 .113-.008.172-.016l1.277-.218a1.01 1.01 0 0 0 .825-1.164l-.082-.461a1.004 1.004 0 0 0-1.16-.82l-1.278.214a1.015 1.015 0 0 0-.824 1.164zm.77-.734a.174.174 0 0 1 .117-.074l1.273-.22h.031a.21.21 0 0 1 .106.032c.02.016.062.055.07.117l.082.461a.195.195 0 0 1-.031.133.184.184 0 0 1-.117.074l-1.278.219a.195.195 0 0 1-.132-.031.174.174 0 0 1-.075-.117l-.078-.458a.182.182 0 0 1 .031-.136zm0 0M11.93 10.184c-.2.175-.32.421-.34.691l-.027.465a1.009 1.009 0 0 0 .94 1.07l1.294.082c.02 0 .043.004.062.004a1.01 1.01 0 0 0 1.008-.945l.028-.465a1.009 1.009 0 0 0-.942-1.07l-1.293-.082a1.025 1.025 0 0 0-.73.25zm2.14.847l-.03.469a.175.175 0 0 1-.06.121.183.183 0 0 1-.132.047l-1.293-.082a.185.185 0 0 1-.168-.191l.031-.47a.175.175 0 0 1 .059-.12.183.183 0 0 1 .132-.047l1.29.082a.185.185 0 0 1 .171.191zm0 0M4.922 10.82l1.262.29a1.009 1.009 0 0 0 1.207-.762l.218-.97a.977.977 0 0 0-.129-.757 1.01 1.01 0 0 0-.628-.45L5.59 7.888a1.005 1.005 0 0 0-.762.133.995.995 0 0 0-.445.628l-.219.965a1 1 0 0 0 .129.762.99.99 0 0 0 .629.445zm.27-1.988a.166.166 0 0 1 .078-.113.173.173 0 0 1 .136-.024l1.262.285a.191.191 0 0 1 .113.079.196.196 0 0 1 .024.136l-.22.97a.183.183 0 0 1-.218.136l-1.262-.285a.193.193 0 0 1-.113-.082c-.012-.024-.035-.07-.023-.137zm0 0"/>
</svg>
